X:34
T:Mason's Apron
S:Bernie Waugh
R:Reel
M:4/4
L:1/8
K:A
|:ed|\
"A"cA (3AAA ABAF|EFAB dcBA|"Bm"dB (3BBB BcBA|"E"Bcde gfed|
"A"cA (3AAA ABAF|EFAB dcBA|"Bm"Bcde "D"fefa|"E"edcB "A"A2:|
|:ed|\
"A"(3cBA eA fAeA|(3cBA eA fAeA|"Bm"(3dcB fB gBfB|"E"(3dcB fB gfed|
"A"(3cBA eA fAeA|(3cBA eA fAeA|"Bm"Bcde "D"fefa|"E"edcB "A"A2:|

